; HEADER_BLOCK_START
; generated by Creality_Print V6.0.4.1795 on 2025-06-06 at 14:48:15
; total layer number: 125
; filament_density: 1.24
; filament_diameter: 1.75
; max_z_height: 25.00
; HEADER_BLOCK_END

; MINX = 41.50
; MINY = 55.51
; MINZ = 0.00
; MAXX = 178.50
; MAXY = 142.51
; MAXZ = 25.00

; THUMBNAIL_BLOCK_START

;
; THUMBNAIL_BLOCK_END

; external perimeters extrusion width = 0.42mm
; perimeters extrusion width = 0.45mm
; infill extrusion width = 0.45mm
; solid infill extrusion width = 0.45mm
; top infill extrusion width = 0.42mm
; first layer extrusion width = 0.50mm

; EXECUTABLE_BLOCK_START
M73 P0 R167
M201 X5000 Y5000 Z1000 E5000
M203 X500 Y500 Z10 E50
M204 P5000 R1000 T5000
M205 X12.00 Y12.00 Z0.40 E5.00 ; sets the jerk limits, mm/sec
;TYPE:Custom
G90 ; use absolute coordinates
M83 ; extruder relative mode
M104 S150 ; set temporary nozzle temp to prevent oozing during homing
M140 S60 ; set final bed temp
G4 S30 ; allow partial nozzle warmup
G28 ; home all axis and restore leveling
G1 Z50 F240
G1 X2.0 Y10 F3000
M104 S200 ; set final nozzle temp
M190 S60 ; wait for bed temp to stabilize
M109 S200 ; wait for nozzle temp to stabilize
G1 Z0.28 F240
G92 E0
G1 X2.0 Y140 E10 F1500 ; prime the nozzle
G1 X2.3 Y140 F5000
G92 E0
G1 X2.3 Y10 E10 F1200 ; prime the nozzle
G92 E0
G90
G21
M83 ; use relative distances for extrusion
; filament start gcode
G1 E-1 F2400
M106 S0
;LAYER_CHANGE
;Z:0.2
;HEIGHT:0.2
;BEFORE_LAYER_CHANGE
;0.2
G92 E0

;_SET_FAN_SPEED_CHANGING_LAYER
M204 S500
M205 X9 Y9
; printing object battery.STL id:86132665743704375 copy 0
G1 Z.2 F9600
G1 X141.793 Y125.836
G1 E1 F2400
;TYPE:Inner wall
;WIDTH:0.499999
G1 F1800
G1 X141.793 Y141.802 E.57647
G1 X42.207 Y141.802 E3.59564
G1 X42.207 Y56.216 E3.09016
M73 P0 R166
M73 P0 R166
G1 X141.793 Y56.216 E3.59564
G1 X141.793 Y72.64 E.59301
G1 X141.935 Y72.948 E.01224
G1 X142.179 Y73.147 E.01139
G1 X142.479 Y73.216 E.01109
G1 X177.793 Y73.216 E1.27506
G1 X177.793 Y124.802 E1.86256
G1 X142.364 Y124.802 E1.27918
G1 X142.058 Y124.946 E.01223
G1 X141.864 Y125.184 E.0111
G1 X141.793 Y125.488 E.01124
G1 X141.793 Y125.796 E.01114
G1 X142.321 Y125.322 F9600
;TYPE:Outer wall
G1 F1800
G1 X142.25 Y125.488 E.0065
G1 X142.25 Y142.259 E.60555
G1 X41.75 Y142.259 E3.62865
G1 X41.75 Y55.759 E3.12317
G1 X142.25 Y55.759 E3.62865
G1 X142.25 Y72.53 E.60555
G1 X142.314 Y72.689 E.00617
G1 X142.479 Y72.759 E.00646
G1 X178.25 Y72.759 E1.29156
G1 X178.25 Y125.259 E1.89556
G1 X142.479 Y125.259 E1.29156
G1 X142.358 Y125.307 E.00468
G1 E-.7 F2400
;WIPE_START
G1 F1800
G1 X142.25 Y125.488 E-.06308
G1 X142.25 Y126.277 E-.23692
;WIPE_END
G1 Z.4 F9600
G1 X175.114 Y123.216 Z.4
G1 Z.2
G1 E1 F2400
;TYPE:Inner wall
G1 F1800
G1 X168.479 Y123.216 E.23959
G1 X168.156 Y123.135 E.01201
G1 X167.93 Y122.942 E.01074
G3 X167.793 Y122.53 I.548 J-.411 E.01593
G1 X167.793 Y75.488 E1.69853
G1 X167.82 Y75.296 E.007
G1 X167.93 Y75.076 E.00886
G1 X168.156 Y74.883 E.01074
G1 X168.479 Y74.802 E.01201
G1 X175.521 Y74.802 E.25429
G1 X175.794 Y74.858 E.01004
G1 X176.006 Y75.003 E.00928
G1 X176.151 Y75.215 E.00928
G1 X176.207 Y75.488 E.01004
G1 X176.207 Y122.53 E1.69853
G1 X176.151 Y122.803 E.01004
G1 X176.006 Y123.015 E.00928
G1 X175.794 Y123.16 E.00928
G1 X175.521 Y123.216 E.01004
G1 X175.154 Y123.216 E.01326
G1 X175.521 Y122.759 F9600
;TYPE:Outer wall
G1 F1800
G1 X168.479 Y122.759 E.25429
G1 X168.296 Y122.668 E.00738
G1 X168.25 Y122.53 E.00522
G1 X168.259 Y75.424 E1.70084
G1 X168.371 Y75.286 E.0064
G1 X168.479 Y75.259 E.004
G1 X175.521 Y75.259 E.25429
G1 X175.683 Y75.326 E.00632
G1 X175.75 Y75.488 E.00632
G1 X175.75 Y122.53 E1.69853
G1 X175.683 Y122.692 E.00632
G1 X175.558 Y122.744 E.00487
G1 E-.7 F2400
;WIPE_START
G1 F1800
G1 X174.558 Y122.746 E-.3
;WIPE_END
G1 Z.4 F9600
G1 X44.886 Y57.802 Z.4
G1 Z.2
G1 E1 F2400
;TYPE:Inner wall
G1 F1800
G1 X51.521 Y57.802 E.23959
G1 X51.844 Y57.883 E.01201
G1 X52.07 Y58.076 E.01074
G3 X52.207 Y58.488 I-.548 J.411 E.01593
G1 X52.207 Y139.53 E2.92613
G1 X52.18 Y139.722 E.007
G1 X52.07 Y139.942 E.00886
G1 X51.844 Y140.135 E.01074
G1 X51.521 Y140.216 E.01201
G1 X44.479 Y140.216 E.25429
G1 X44.206 Y140.16 E.01004
G1 X43.994 Y140.015 E.00928
G1 X43.849 Y139.803 E.00928
G1 X43.793 Y139.53 E.01004
G1 X43.793 Y58.488 E2.92613
G1 X43.849 Y58.215 E.01004
G1 X43.994 Y58.003 E.00928
G1 X44.206 Y57.858 E.00928
G1 X44.479 Y57.802 E.01004
G1 X44.846 Y57.802 E.01326
G1 X44.479 Y58.259 F9600
;TYPE:Outer wall
G1 F1800
G1 X51.521 Y58.259 E.25429
G1 X51.704 Y58.35 E.00738
G1 X51.75 Y58.488 E.00522
G1 X51.741 Y139.594 E2.92844
G1 X51.629 Y139.732 E.0064
G1 X51.521 Y139.759 E.004
G1 X44.479 Y139.759 E.25429
G1 X44.317 Y139.692 E.00632
G1 X44.25 Y139.53 E.00632
G1 X44.25 Y58.488 E2.92613
G1 X44.317 Y58.326 E.00632
G1 X44.442 Y58.274 E.00487
G1 E-.7 F2400
;WIPE_START
G1 F1800
G1 X45.442 Y58.272 E-.3
;WIPE_END
G1 Z.4 F9600
G1 X177.656 Y74.278
G1 Z.4
G1 Z.2
G1 E1 F2400
;TYPE:Bottom surface
;WIDTH:0.500215
G1 F3000
G1 X176.937 Y73.559 E.03672
G1 X176.29 Y73.559 E.02336
G1 X177.45 Y74.719 E.05925
G1 X177.45 Y75.365 E.02336
G1 X175.644 Y73.559 E.09229
G1 X174.997 Y73.559 E.02336
G1 X177.45 Y76.012 E.12532
G1 X177.45 Y76.659 E.02336
G1 X176.55 Y75.759 E.04599
G1 X176.55 Y76.405 E.02336
G1 X177.45 Y77.306 E.04599
G1 X177.45 Y77.952 E.02336
G1 X176.55 Y77.052 E.04599
G1 X176.55 Y77.699 E.02336
G1 X177.45 Y78.599 E.04599
G1 X177.45 Y79.246 E.02336
G1 X176.55 Y78.345 E.04599
G1 X176.55 Y78.992 E.02336
G1 X177.45 Y79.892 E.04599
G1 X177.45 Y80.539 E.02336
G1 X176.55 Y79.639 E.04599
G1 X176.55 Y80.286 E.02336
G1 X177.45 Y81.186 E.04599
G1 X177.45 Y81.833 E.02336
G1 X176.55 Y80.932 E.04599
G1 X176.55 Y81.579 E.02336
G1 X177.45 Y82.479 E.04599
G1 X177.45 Y83.126 E.02336
G1 X176.55 Y82.226 E.04599
G1 X176.55 Y82.872 E.02336
G1 X177.45 Y83.773 E.04599
G1 X177.45 Y84.419 E.02336
G1 X176.55 Y83.519 E.04599
G1 X176.55 Y84.166 E.02336
G1 X177.45 Y85.066 E.04599
G1 X177.45 Y85.713 E.02336
G1 X176.55 Y84.813 E.04599
G1 X176.55 Y85.459 E.02336
G1 X177.45 Y86.359 E.04599
G1 X177.45 Y87.006 E.02336
G1 X176.55 Y86.106 E.04599
G1 X176.55 Y86.753 E.02336
G1 X177.45 Y87.653 E.04599
G1 X177.45 Y88.3 E.02336
G1 X176.55 Y87.399 E.04599
G1 X176.55 Y88.046 E.02336
G1 X177.45 Y88.946 E.04599
G1 X177.45 Y89.593 E.02336
G1 X176.55 Y88.693 E.04599
G1 X176.55 Y89.34 E.02336
G1 X177.45 Y90.24 E.04599
G1 X177.45 Y90.886 E.02336
G1 X176.55 Y89.986 E.04599
G1 X176.55 Y90.633 E.02336
G1 X177.45 Y91.533 E.04599
G1 X177.45 Y92.18 E.02336
G1 X176.55 Y91.28 E.04599
G1 X176.55 Y91.926 E.02336
G1 X177.45 Y92.827 E.04599
G1 X177.45 Y93.473 E.02336
G1 X176.55 Y92.573 E.04599
G1 X176.55 Y93.22 E.02336
G1 X177.45 Y94.12 E.04599
G1 X177.45 Y94.767 E.02336
G1 X176.55 Y93.867 E.04599
G1 X176.55 Y94.513 E.02336
G1 X177.45 Y95.413 E.04599
G1 X177.45 Y96.06 E.02336
G1 X176.55 Y95.16 E.04599
G1 X176.55 Y95.807 E.02336
G1 X177.45 Y96.707 E.04599
G1 X177.45 Y97.354 E.02336
G1 X176.55 Y96.453 E.04599
G1 X176.55 Y97.1 E.02336
G1 X177.45 Y98 E.04599
G1 X177.45 Y98.647 E.02336
G1 X176.55 Y97.747 E.04599
G1 X176.55 Y98.394 E.02336
G1 X177.45 Y99.294 E.04599
G1 X177.45 Y99.94 E.02336
G1 X176.55 Y99.04 E.04599
G1 X176.55 Y99.687 E.02336
G1 X177.45 Y100.587 E.04599
G1 X177.45 Y101.234 E.02336
G1 X176.55 Y100.334 E.04599
G1 X176.55 Y100.98 E.02336
G1 X177.45 Y101.881 E.04599
G1 X177.45 Y102.527 E.02336
G1 X176.55 Y101.627 E.04599
G1 X176.55 Y102.274 E.02336
G1 X177.45 Y103.174 E.04599
G1 X177.45 Y103.821 E.02336
G1 X176.55 Y102.921 E.04599
G1 X176.55 Y103.567 E.02336
G1 X177.45 Y104.467 E.04599
G1 X177.45 Y105.114 E.02336
G1 X176.55 Y104.214 E.04599
G1 X176.55 Y104.861 E.02336
G1 X177.45 Y105.761 E.04599
G1 X177.45 Y106.408 E.02336
G1 X176.55 Y105.507 E.04599
G1 X176.55 Y106.154 E.02336
G1 X177.45 Y107.054 E.04599
G1 X177.45 Y107.701 E.02336
G1 X176.55 Y106.801 E.04599
G1 X176.55 Y107.448 E.02336
G1 X177.45 Y108.348 E.04599
G1 X177.45 Y108.994 E.02336
G1 X176.55 Y108.094 E.04599
G1 X176.55 Y108.741 E.02336
G1 X177.45 Y109.641 E.04599
G1 X177.45 Y110.288 E.02336
G1 X176.55 Y109.388 E.04599
G1 X176.55 Y110.034 E.02336
G1 X177.45 Y110.935 E.04599
G1 X177.45 Y111.581 E.02336
G1 X176.55 Y110.681 E.04599
G1 X176.55 Y111.328 E.02336
G1 X177.45 Y112.228 E.04599
G1 X177.45 Y112.875 E.02336
G1 X176.55 Y111.974 E.04599
G1 X176.55 Y112.621 E.02336
G1 X177.45 Y113.521 E.04599
G1 X177.45 Y114.168 E.02336
G1 X176.55 Y113.268 E.04599
G1 X176.55 Y113.915 E.02336
G1 X177.45 Y114.815 E.04599
G1 X177.45 Y115.462 E.02336
G1 X176.55 Y114.561 E.04599
G1 X176.55 Y115.208 E.02336
G1 X177.45 Y116.108 E.04599
G1 X177.45 Y116.755 E.02336
G1 X176.55 Y115.855 E.04599
G1 X176.55 Y116.501 E.02336
G1 X177.45 Y117.402 E.04599
G1 X177.45 Y118.048 E.02336
G1 X176.55 Y117.148 E.04599
G1 X176.55 Y117.795 E.02336
G1 X177.45 Y118.695 E.04599
G1 X177.45 Y119.342 E.02336
M73 P0 R165
M73 P0 R165
G1 X176.55 Y118.442 E.04599
G1 X176.55 Y119.088 E.02336
G1 X177.45 Y119.989 E.04599
G1 X177.45 Y120.635 E.02336
G1 X176.55 Y119.735 E.04599
G1 X176.55 Y120.382 E.02336
G1 X177.45 Y121.282 E.04599
G1 X177.45 Y121.929 E.02336
G1 X176.55 Y121.028 E.04599
G1 X176.55 Y121.675 E.02336
G1 X177.45 Y122.575 E.04599
G1 X177.45 Y123.222 E.02336
G1 X176.55 Y122.322 E.04599
G3 X176.479 Y122.897 I-1.435 J.114 E.02109
G1 X177.45 Y123.869 E.04963
G1 X177.45 Y124.459 E.02132
G1 X177.394 Y124.459 E.00204
G1 X176.217 Y123.282 E.06014
G1 X175.934 Y123.474 E.01233
G1 X175.801 Y123.514 E.00501
M73 P1 R165
M73 P1 R165
G1 X176.747 Y124.459 E.0483
G1 X176.1 Y124.459 E.02336
G1 X175.2 Y123.559 E.04599
G1 X174.553 Y123.559 E.02336
G1 X175.454 Y124.459 E.04599
G1 X174.807 Y124.459 E.02336
G1 X173.907 Y123.559 E.04599
G1 X173.26 Y123.559 E.02336
G1 X174.16 Y124.459 E.04599
G1 X173.513 Y124.459 E.02336
G1 X172.613 Y123.559 E.04599
G1 X171.966 Y123.559 E.02336
G1 X172.867 Y124.459 E.04599
G1 X172.22 Y124.459 E.02336
G1 X171.32 Y123.559 E.04599
G1 X170.673 Y123.559 E.02336
G1 X171.573 Y124.459 E.04599
G1 X170.927 Y124.459 E.02336
G1 X170.026 Y123.559 E.04599
G1 X169.38 Y123.559 E.02336
G1 X170.28 Y124.459 E.04599
G1 X169.633 Y124.459 E.02336
G1 X168.527 Y123.353 E.0565
G1 E-.7 F2400
;WIPE_START
G1 F3000
G1 X169.234 Y124.06 E-.3
;WIPE_END
G1 Z.4 F9600
G1 X175.456 Y74.665 Z.4
G1 Z.2
G1 E1 F2400
G1 F3000
G1 X174.35 Y73.559 E.0565
G1 X173.703 Y73.559 E.02336
G1 X174.604 Y74.459 E.04599
G1 X173.957 Y74.459 E.02336
G1 X173.057 Y73.559 E.04599
G1 X172.41 Y73.559 E.02336
G1 X173.31 Y74.459 E.04599
G1 X172.664 Y74.459 E.02336
G1 X171.763 Y73.559 E.04599
G1 X171.117 Y73.559 E.02336
G1 X172.017 Y74.459 E.04599
G1 X171.37 Y74.459 E.02336
G1 X170.47 Y73.559 E.04599
G1 X169.823 Y73.559 E.02336
G1 X170.723 Y74.459 E.04599
G1 X170.077 Y74.459 E.02336
G1 X169.177 Y73.559 E.04599
G1 X168.53 Y73.559 E.02336
G1 X169.43 Y74.459 E.04599
G1 X168.783 Y74.459 E.02336
G1 X167.883 Y73.559 E.04599
G1 X167.236 Y73.559 E.02336
G1 X168.189 Y74.512 E.04867
G1 X167.991 Y74.58 E.00759
G1 X167.786 Y74.755 E.00973
G1 X166.59 Y73.559 E.06112
G1 X165.943 Y73.559 E.02336
G1 X167.521 Y75.137 E.0806
G1 X167.49 Y75.197 E.00244
G2 X167.45 Y75.713 I1.785 J.399 E.01875
G1 X165.296 Y73.559 E.11003
G1 X164.65 Y73.559 E.02336
G1 X167.45 Y76.36 E.14307
G1 X167.45 Y77.006 E.02336
G1 X164.003 Y73.559 E.17611
G1 X163.356 Y73.559 E.02336
G1 X167.45 Y77.653 E.20915
G1 X167.45 Y78.3 E.02336
G1 X162.709 Y73.559 E.24218
G1 X162.063 Y73.559 E.02336
G1 X167.45 Y78.946 E.27522
G1 X167.45 Y79.593 E.02336
G1 X161.416 Y73.559 E.30826
G1 X160.769 Y73.559 E.02336
G1 X167.45 Y80.24 E.3413
G1 X167.45 Y80.886 E.02336
G1 X160.123 Y73.559 E.37434
G1 X159.476 Y73.559 E.02336
G1 X167.45 Y81.533 E.40737
G1 X167.45 Y82.18 E.02336
G1 X158.829 Y73.559 E.44041
G1 X158.182 Y73.559 E.02336
G1 X167.45 Y82.827 E.47345
G1 X167.45 Y83.473 E.02336
G1 X157.536 Y73.559 E.50649
G1 X156.889 Y73.559 E.02336
G1 X167.45 Y84.12 E.53952
G1 X167.45 Y84.767 E.02336
G1 X156.242 Y73.559 E.57256
G1 X155.596 Y73.559 E.02336
G1 X167.45 Y85.413 E.6056
G1 X167.45 Y86.06 E.02336
G1 X154.949 Y73.559 E.63864
G1 X154.302 Y73.559 E.02336
G1 X167.45 Y86.707 E.67168
G1 X167.45 Y87.354 E.02336
G1 X153.655 Y73.559 E.70471
G1 X153.009 Y73.559 E.02336
G1 X167.45 Y88 E.73775
G1 X167.45 Y88.647 E.02336
G1 X152.362 Y73.559 E.77079
G1 X151.715 Y73.559 E.02336
G1 X167.45 Y89.294 E.80383
G1 X167.45 Y89.94 E.02336
G1 X151.069 Y73.559 E.83686
G1 X150.422 Y73.559 E.02336
G1 X167.45 Y90.587 E.8699
G1 X167.45 Y91.234 E.02336
G1 X149.775 Y73.559 E.90294
G1 X149.128 Y73.559 E.02336
G1 X167.45 Y91.881 E.93598
G1 X167.45 Y92.527 E.02336
G1 X148.482 Y73.559 E.96901
G1 X147.835 Y73.559 E.02336
G1 X167.45 Y93.174 E1.00205
G1 X167.45 Y93.821 E.02336
G1 X147.188 Y73.559 E1.03509
G1 X146.542 Y73.559 E.02336
G1 X167.45 Y94.467 E1.06813
G1 X167.45 Y95.114 E.02336
G1 X145.895 Y73.559 E1.10117
G1 X145.248 Y73.559 E.02336
G1 X167.45 Y95.761 E1.1342
G1 X167.45 Y96.408 E.02336
G1 X144.601 Y73.559 E1.16724
G1 X143.955 Y73.559 E.02336
G1 X167.45 Y97.054 E1.20028
G1 X167.45 Y97.701 E.02336
G1 X143.102 Y73.353 E1.24382
G1 E-.7 F2400
;WIPE_START
G1 F3000
G1 X143.809 Y74.06 E-.3
;WIPE_END
G1 Z.4 F9600
G1 X140.977 Y56.353 Z.4
G1 Z.2
G1 E1 F2400
G1 F3000
G1 X141.45 Y56.827 E.02419
G1 X141.45 Y57.473 E.02336
G1 X140.536 Y56.559 E.04672
G1 X139.889 Y56.559 E.02336
G1 X141.45 Y58.12 E.07976
G1 X141.45 Y58.767 E.02336
G1 X139.242 Y56.559 E.1128
G1 X138.596 Y56.559 E.02336
G1 X141.45 Y59.414 E.14584
G1 X141.45 Y60.06 E.02336
G1 X137.949 Y56.559 E.17888
G1 X137.302 Y56.559 E.02336
G1 X141.45 Y60.707 E.21192
G1 X141.45 Y61.354 E.02336
G1 X136.655 Y56.559 E.24496
G1 X136.009 Y56.559 E.02336
G1 X141.45 Y62.001 E.278
G1 X141.45 Y62.647 E.02336
G1 X135.362 Y56.559 E.31104
G1 X134.715 Y56.559 E.02336
G1 X141.451 Y63.294 E.34408
G1 X141.451 Y63.941 E.02336
G1 X134.069 Y56.559 E.37712
G1 X133.422 Y56.559 E.02336
G1 X141.451 Y64.588 E.41015
G1 X141.451 Y65.234 E.02336
G1 X132.775 Y56.559 E.44319
G1 X132.128 Y56.559 E.02336
G1 X141.451 Y65.881 E.47623
G1 X141.451 Y66.528 E.02336
G1 X131.482 Y56.559 E.50927
G1 X130.835 Y56.559 E.02336
G1 X141.451 Y67.175 E.54231
G1 X141.451 Y67.821 E.02336
G1 X130.188 Y56.559 E.57535
G1 X129.542 Y56.559 E.02336
G1 X141.451 Y68.468 E.60839
G1 X141.451 Y69.115 E.02336
G1 X128.895 Y56.559 E.64143
G1 X128.248 Y56.559 E.02336
G1 X141.451 Y69.762 E.67447
G1 X141.451 Y70.408 E.02336
G1 X127.601 Y56.559 E.70751
G1 X126.955 Y56.559 E.02336
G1 X141.451 Y71.055 E.74055
G1 X141.451 Y71.702 E.02336
G1 X126.308 Y56.559 E.77359
G1 X125.661 Y56.559 E.02336
G1 X141.451 Y72.349 E.80663
G2 X142.028 Y73.456 I1.099 J.131 E.04792
G2 X142.661 Y73.559 I.542 J-1.335 E.02337
G1 X167.45 Y98.348 E1.26635
G1 X167.45 Y98.994 E.02336
G1 X125.015 Y56.559 E2.16785
G1 X124.368 Y56.559 E.02336
G1 X167.45 Y99.641 E2.20089
G1 X167.45 Y100.288 E.02336
G1 X123.721 Y56.559 E2.23392
G1 X123.074 Y56.559 E.02336
G1 X167.45 Y100.935 E2.26696
G1 X167.45 Y101.581 E.02336
G1 X122.428 Y56.559 E2.3
G1 X121.781 Y56.559 E.02336
G1 X167.45 Y102.228 E2.33304
G1 X167.45 Y102.875 E.02336
G1 X121.134 Y56.559 E2.36608
G1 X120.488 Y56.559 E.02336
G1 X167.45 Y103.521 E2.39911
G1 X167.45 Y104.168 E.02336
G1 X119.841 Y56.559 E2.43215
G1 X119.194 Y56.559 E.02336
G1 X167.45 Y104.815 E2.46519
G1 X167.45 Y105.462 E.02336
G1 X118.547 Y56.559 E2.49823
G1 X117.901 Y56.559 E.02336
G1 X167.45 Y106.108 E2.53126
G1 X167.45 Y106.755 E.02336
G1 X117.254 Y56.559 E2.5643
G1 X116.607 Y56.559 E.02336
G1 X167.45 Y107.402 E2.59734
G1 X167.45 Y108.048 E.02336
G1 X115.961 Y56.559 E2.63038
G1 X115.314 Y56.559 E.02336
G1 X167.45 Y108.695 E2.66342
G1 X167.45 Y109.342 E.02336
G1 X114.667 Y56.559 E2.69645
G1 X114.02 Y56.559 E.02336
G1 X167.45 Y109.989 E2.72949
G1 X167.45 Y110.635 E.02336
G1 X113.374 Y56.559 E2.76253
G1 X112.727 Y56.559 E.02336
G1 X167.45 Y111.282 E2.79557
G1 X167.45 Y111.929 E.02336
M73 P1 R164
M73 P1 R164
G1 X112.08 Y56.559 E2.8286
G1 X111.434 Y56.559 E.02336
G1 X167.45 Y112.575 E2.86164
G1 X167.45 Y113.222 E.02336
G1 X110.787 Y56.559 E2.89468
G1 X110.14 Y56.559 E.02336
G1 X167.45 Y113.869 E2.92772
G1 X167.45 Y114.516 E.02336
G1 X109.493 Y56.559 E2.96075
G1 X108.847 Y56.559 E.02336
G1 X167.45 Y115.162 E2.99379
