; HEADER_BLOCK_START
; generated by Creality_Print V6.0.4.1795 on 2025-06-06 at 14:56:50
; total layer number: 108
; filament_density: 1.24
; filament_diameter: 1.75
; max_z_height: 21.60
; HEADER_BLOCK_END

; MINX = 77.00
; MINY = 96.62
; MINZ = 0.00
; MAXX = 143.00
; MAXY = 114.72
; MAXZ = 21.65

; THUMBNAIL_BLOCK_START

;
; THUMBNAIL_BLOCK_END

; external perimeters extrusion width = 0.42mm
; perimeters extrusion width = 0.45mm
; infill extrusion width = 0.45mm
; solid infill extrusion width = 0.45mm
; top infill extrusion width = 0.42mm
; first layer extrusion width = 0.50mm

; EXECUTABLE_BLOCK_START
M73 P0 R21
M201 X5000 Y5000 Z1000 E5000
M203 X500 Y500 Z10 E50
M204 P5000 R1000 T5000
M205 X12.00 Y12.00 Z0.40 E5.00 ; sets the jerk limits, mm/sec
;TYPE:Custom
G90 ; use absolute coordinates
M83 ; extruder relative mode
M104 S150 ; set temporary nozzle temp to prevent oozing during homing
M140 S60 ; set final bed temp
G4 S30 ; allow partial nozzle warmup
G28 ; home all axis and restore leveling
G1 Z50 F240
G1 X2.0 Y10 F3000
M104 S200 ; set final nozzle temp
M190 S60 ; wait for bed temp to stabilize
M109 S200 ; wait for nozzle temp to stabilize
G1 Z0.28 F240
G92 E0
G1 X2.0 Y140 E10 F1500 ; prime the nozzle
M73 P1 R20
M73 P1 R20
G1 X2.3 Y140 F5000
M73 P2 R20
G92 E0
M73 P2 R20
G1 X2.3 Y10 E10 F1200 ; prime the nozzle
G92 E0
G90
G21
M83 ; use relative distances for extrusion
; filament start gcode
G1 E-1 F2400
M106 S0
;LAYER_CHANGE
;Z:0.2
;HEIGHT:0.2
;BEFORE_LAYER_CHANGE
;0.2
G92 E0

;_SET_FAN_SPEED_CHANGING_LAYER
M204 S500
M205 X9 Y9
; printing object snsr5.STL id:8171063952611762432 copy 0
G1 Z.2 F9600
G1 X132.207 Y101.653
G1 E1 F2400
;TYPE:Inner wall
;WIDTH:0.499999
G1 F1800
G1 X142.293 Y101.653 E.36416
G1 X142.293 Y114.018 E.44644
M73 P3 R20
M73 P3 R20
G1 X131.707 Y114.018 E.38221
G1 X131.707 Y101.653 E.44644
G1 X132.167 Y101.653 E.01661
G1 E-.7 F2400
;WIPE_START
G1 F1800
G1 X133.167 Y101.653 E-.3
;WIPE_END
G1 Z.4 F9600
G1 X131.25 Y101.196 Z.4
G1 Z.2
G1 E1 F2400
;TYPE:Outer wall
G1 F1800
G1 X142.75 Y101.196 E.41522
G1 X142.75 Y114.475 E.47944
G1 X131.25 Y114.475 E.41522
G1 X131.25 Y101.236 E.478
G1 E-.7 F2400
;WIPE_START
G1 F1800
G1 X132.25 Y101.232 E-.3
;WIPE_END
G1 Z.4 F9600
G1 X140.539 Y103.487 Z.4
G1 Z.2
G1 E1 F2400
;TYPE:Inner wall
G1 F1800
G1 X140.651 Y103.652 E.00719
G1 X140.707 Y103.924 E.01004
G1 X140.707 Y111.746 E.28241
G1 X140.651 Y112.018 E.01004
G1 X140.506 Y112.231 E.00928
G1 X140.294 Y112.375 E.00928
G1 X140.021 Y112.432 E.01004
G1 X135.979 Y112.432 E.14597
G1 X135.626 Y112.334 E.01322
G1 X135.397 Y112.11 E.01156
G1 X135.293 Y111.746 E.01366
G1 X135.293 Y103.924 E.28241
G1 X135.397 Y103.561 E.01366
G1 X135.626 Y103.337 E.01156
G1 X135.979 Y103.239 E.01322
G1 X140.021 Y103.239 E.14597
G1 X140.294 Y103.295 E.01004
G1 X140.506 Y103.44 E.00928
G1 X140.516 Y103.454 E.00064
G1 X140.021 Y103.696 F9600
;TYPE:Outer wall
G1 F1800
G1 X140.183 Y103.763 E.00632
G1 X140.25 Y103.924 E.00632
G1 X140.25 Y111.746 E.28241
G1 X140.183 Y111.908 E.00632
G1 X140.021 Y111.975 E.00632
G1 X135.979 Y111.975 E.14597
G1 X135.861 Y111.942 E.00441
G1 X135.75 Y111.781 E.00707
G1 X135.75 Y103.924 E.28365
G1 X135.785 Y103.803 E.00455
G1 X135.944 Y103.696 E.00694
G1 X139.981 Y103.696 E.14577
G1 E-.7 F2400
;WIPE_START
G1 F1800
G1 X140.183 Y103.763 E-.06373
G1 X140.25 Y103.924 E-.05248
G1 X140.25 Y104.537 E-.1838
;WIPE_END
G1 Z.4 F9600
G1 X141.209 Y101.79
G1 Z.4
G1 Z.2
G1 E1 F2400
;TYPE:Bottom surface
;WIDTH:0.510721
G1 F3000
G1 X141.95 Y102.531 E.03873
G1 X141.95 Y103.193 E.02445
G1 X140.753 Y101.996 E.06255
G1 X140.092 Y101.996 E.02445
G1 X141.95 Y103.854 E.09712
G1 X141.95 Y104.516 E.02445
G1 X139.43 Y101.996 E.1317
G1 X138.768 Y101.996 E.02445
G1 X139.669 Y102.896 E.04705
G1 X139.007 Y102.896 E.02445
G1 X138.107 Y101.996 E.04705
G1 X137.445 Y101.996 E.02445
G1 X138.346 Y102.896 E.04705
G1 X137.684 Y102.896 E.02445
G1 X136.784 Y101.996 E.04705
G1 X136.122 Y101.996 E.02445
G1 X137.022 Y102.896 E.04705
G1 X136.361 Y102.896 E.02445
G1 X135.461 Y101.996 E.04705
G1 X134.799 Y101.996 E.02445
G1 X135.737 Y102.933 E.049
G1 X135.445 Y103.042 E.01149
G1 X135.313 Y103.172 E.00684
G1 X134.138 Y101.996 E.06145
G1 X133.476 Y101.996 E.02445
G1 X135.036 Y103.556 E.08151
G2 X134.95 Y104.132 I1.086 J.456 E.02174
G1 X132.814 Y101.996 E.11161
G1 X132.153 Y101.996 E.02445
G1 X134.95 Y104.793 E.14619
G1 X134.95 Y105.455 E.02445
G1 X132.05 Y102.554 E.15156
G1 X132.05 Y103.216 E.02445
G1 X134.95 Y106.116 E.15156
G1 X134.95 Y106.778 E.02445
G1 X132.05 Y103.878 E.15156
G1 X132.05 Y104.539 E.02445
G1 X134.95 Y107.439 E.15156
G1 X134.95 Y108.101 E.02445
G1 X132.05 Y105.201 E.15156
G1 X132.05 Y105.862 E.02445
G1 X134.95 Y108.763 E.15156
G1 X134.95 Y109.424 E.02445
G1 X132.05 Y106.524 E.15156
G1 X132.05 Y107.185 E.02445
G1 X134.95 Y110.086 E.15156
G1 X134.95 Y110.747 E.02445
G1 X132.05 Y107.847 E.15156
G1 X132.05 Y108.509 E.02445
G1 X135.156 Y111.615 E.16231
G1 E-.7 F2400
;WIPE_START
G1 F3000
G1 X134.449 Y110.907 E-.3
;WIPE_END
G1 Z.4 F9600
G1 X140.844 Y104.072 Z.4
G1 Z.2
G1 E1 F2400
G1 F3000
G1 X141.95 Y105.177 E.0578
G1 X141.95 Y105.839 E.02445
G1 X141.05 Y104.939 E.04705
G1 X141.05 Y105.6 E.02445
G1 X141.95 Y106.501 E.04705
G1 X141.95 Y107.162 E.02445
G1 X141.05 Y106.262 E.04705
G1 X141.05 Y106.924 E.02445
G1 X141.95 Y107.824 E.04705
G1 X141.95 Y108.485 E.02445
G1 X141.05 Y107.585 E.04705
G1 X141.05 Y108.247 E.02445
G1 X141.95 Y109.147 E.04705
G1 X141.95 Y109.808 E.02445
G1 X141.05 Y108.908 E.04705
G1 X141.05 Y109.57 E.02445
G1 X141.95 Y110.47 E.04705
G1 X141.95 Y111.132 E.02445
G1 X141.05 Y110.231 E.04705
G1 X141.05 Y110.893 E.02445
G1 X141.95 Y111.793 E.04705
G1 X141.95 Y112.455 E.02445
G1 X141.05 Y111.554 E.04705
G3 X140.971 Y112.137 I-1.431 J.104 E.02189
G1 X141.95 Y113.116 E.05116
G1 X141.95 Y113.675 E.02064
G1 X141.847 Y113.675 E.00381
G1 X140.689 Y112.517 E.06053
G1 X140.434 Y112.69 E.01137
G1 X140.254 Y112.743 E.00695
G1 X141.186 Y113.675 E.04867
G1 X140.524 Y113.675 E.02445
G1 X139.624 Y112.775 E.04705
G1 X138.962 Y112.775 E.02445
G1 X139.862 Y113.675 E.04705
G1 X139.201 Y113.675 E.02445
G1 X138.301 Y112.775 E.04705
M73 P4 R20
M73 P4 R20
G1 X137.639 Y112.775 E.02445
G1 X138.539 Y113.675 E.04705
G1 X137.878 Y113.675 E.02445
G1 X136.977 Y112.775 E.04705
G1 X136.316 Y112.775 E.02445
G1 X137.216 Y113.675 E.04705
G1 X136.555 Y113.675 E.02445
G1 X132.05 Y109.17 E.23541
G1 X132.05 Y109.832 E.02445
G1 X135.893 Y113.675 E.20084
G1 X135.231 Y113.675 E.02445
G1 X132.05 Y110.493 E.16626
G1 X132.05 Y111.155 E.02445
G1 X134.57 Y113.675 E.13169
G1 X133.908 Y113.675 E.02445
G1 X132.05 Y111.816 E.09712
G1 X132.05 Y112.478 E.02445
G1 X133.247 Y113.675 E.06254
G1 X132.585 Y113.675 E.02445
G1 X131.844 Y112.934 E.03872
G1 E-.7 F2400
;WIPE_START
G1 F3000
G1 X132.551 Y113.641 E-.3
;WIPE_END
G1 Z.4 F9600
G1 X140.078 Y103.002 Z.4
G1 Z.2
G1 E1 F2400
;TYPE:Gap infill
;WIDTH:0.109127
G1 F1800
G2 X139.912 Y102.92 I-.87 J1.553 E.00097
G1 E-.7 F2400
;WIPE_START
G1 F1800
G1 X140.078 Y103.002 E-.3
;WIPE_END
G1 Z.4 F9600
G1 X111.016 Y102.139 Z.4
G1 Z.2
G1 E1 F2400
;TYPE:Inner wall
;WIDTH:0.499999
G1 F1800
G1 X111.016 Y107.875 E.20712
G1 X108.984 Y107.875 E.07337
G1 X108.984 Y101.639 E.22518
G1 X111.016 Y101.639 E.07337
G1 X111.016 Y102.099 E.01661
G1 E-.7 F2400
;WIPE_START
G1 F1800
G1 X111.016 Y103.099 E-.3
;WIPE_END
G1 Z.4 F9600
G1 X111.473 Y101.182 Z.4
G1 Z.2
G1 E1 F2400
;TYPE:Outer wall
G1 F1800
G1 X111.473 Y108.332 E.25818
G1 X108.527 Y108.332 E.10637
G1 X108.527 Y101.182 E.25818
G1 X111.433 Y101.182 E.10493
G1 E-.7 F2400
;WIPE_START
G1 F1800
G1 X111.439 Y102.182 E-.3
;WIPE_END
G1 Z.4 F9600
G1 X109.948 Y101.776 Z.4
G1 Z.2
G1 E1 F2400
;TYPE:Bottom surface
;WIDTH:0.503212
G1 F3000
G1 X110.673 Y102.501 E.03729
G1 X110.673 Y103.152 E.02367
G1 X109.503 Y101.982 E.06018
G1 X109.327 Y101.982 E.0064
G1 X109.327 Y102.457 E.01727
G1 X110.673 Y103.803 E.06923
G1 X110.673 Y104.454 E.02367
G1 X109.327 Y103.107 E.06923
G1 X109.327 Y103.758 E.02367
G1 X110.673 Y105.105 E.06923
G1 X110.673 Y105.756 E.02367
G1 X109.327 Y104.409 E.06923
G1 X109.327 Y105.06 E.02367
G1 X110.673 Y106.407 E.06923
G1 X110.673 Y107.058 E.02367
G1 X109.327 Y105.711 E.06923
G1 X109.327 Y106.362 E.02367
G1 X110.497 Y107.532 E.06017
G1 X109.846 Y107.532 E.02367
G1 X109.121 Y106.807 E.03728
G1 E-.7 F2400
;WIPE_START
G1 F3000
G1 X109.828 Y107.515 E-.3
;WIPE_END
G1 Z.4 F9600
G1 X88.293 Y102.153 Z.4
G1 Z.2
G1 E1 F2400
;TYPE:Inner wall
;WIDTH:0.499999
G1 F1800
G1 X88.293 Y114.018 E.42838
G1 X77.707 Y114.018 E.38221
G1 X77.707 Y101.653 E.44644
G1 X88.293 Y101.653 E.38221
G1 X88.293 Y102.113 E.01661
G1 E-.7 F2400
;WIPE_START
G1 F1800
G1 X88.293 Y103.113 E-.3
;WIPE_END
G1 Z.4 F9600
G1 X88.75 Y101.196 Z.4
G1 Z.2
G1 E1 F2400
;TYPE:Outer wall
G1 F1800
G1 X88.75 Y114.475 E.47944
G1 X77.25 Y114.475 E.41522
G1 X77.25 Y101.196 E.47944
G1 X88.71 Y101.196 E.41377
G1 E-.7 F2400
;WIPE_START
G1 F1800
G1 X88.713 Y102.196 E-.3
;WIPE_END
G1 Z.4 F9600
G1 X79.293 Y111.339 Z.4
G1 Z.2
G1 E1 F2400
;TYPE:Inner wall
G1 F1800
G1 X79.293 Y103.924 E.2677
G1 X79.349 Y103.652 E.01004
G1 X79.494 Y103.44 E.00928
G1 X79.706 Y103.295 E.00928
G1 X79.979 Y103.239 E.01004
G1 X84.021 Y103.239 E.14597
G1 X84.374 Y103.337 E.01322
G1 X84.603 Y103.561 E.01156
G1 X84.707 Y103.924 E.01366
G1 X84.707 Y111.746 E.28241
G1 X84.603 Y112.11 E.01366
G1 X84.374 Y112.334 E.01156
G1 X84.021 Y112.432 E.01322
G1 X79.979 Y112.432 E.14597
G1 X79.706 Y112.375 E.01004
G1 X79.494 Y112.231 E.00928
G1 X79.349 Y112.018 E.00928
G1 X79.293 Y111.746 E.01004
G1 X79.293 Y111.379 E.01326
G1 X79.75 Y111.746 F9600
;TYPE:Outer wall
G1 F1800
G1 X79.75 Y103.924 E.28241
G1 X79.817 Y103.763 E.00632
G1 X79.979 Y103.696 E.00632
G1 X84.021 Y103.696 E.14597
G1 X84.139 Y103.729 E.00441
M73 P5 R20
M73 P5 R20
G1 X84.25 Y103.888 E.00702
G1 X84.25 Y111.746 E.28372
G1 X84.215 Y111.867 E.00455
G1 X84.056 Y111.975 E.00694
G1 X79.979 Y111.975 E.14722
G1 X79.817 Y111.908 E.00632
G1 X79.765 Y111.783 E.00487
G1 E-.7 F2400
;WIPE_START
G1 F1800
G1 X79.763 Y110.783 E-.3
;WIPE_END
G1 Z.4 F9600
G1 X88.156 Y102.737 Z.4
G1 Z.2
G1 E1 F2400
;TYPE:Bottom surface
;WIDTH:0.510721
G1 F3000
G1 X87.415 Y101.996 E.03873
G1 X86.753 Y101.996 E.02445
G1 X87.95 Y103.193 E.06255
G1 X87.95 Y103.854 E.02445
G1 X86.092 Y101.996 E.09712
G1 X85.43 Y101.996 E.02445
G1 X87.95 Y104.516 E.1317
G1 X87.95 Y105.177 E.02445
G1 X84.768 Y101.996 E.16627
G1 X84.107 Y101.996 E.02445
G1 X87.95 Y105.839 E.20084
G1 X87.95 Y106.501 E.02445
G1 X83.445 Y101.996 E.23542
G1 X82.784 Y101.996 E.02445
G1 X83.684 Y102.896 E.04705
G1 X83.022 Y102.896 E.02445
G1 X82.122 Y101.996 E.04705
G1 X81.461 Y101.996 E.02445
G1 X82.361 Y102.896 E.04705
G1 X81.699 Y102.896 E.02445
G1 X80.799 Y101.996 E.04705
G1 X80.138 Y101.996 E.02445
G1 X81.038 Y102.896 E.04705
G1 X80.376 Y102.896 E.02445
G1 X79.476 Y101.996 E.04705
G1 X78.814 Y101.996 E.02445
G1 X79.746 Y102.927 E.04867
G1 X79.566 Y102.981 E.00694
G1 X79.311 Y103.154 E.01138
G1 X78.153 Y101.996 E.06054
G1 X78.05 Y101.996 E.0038
G1 X78.05 Y102.554 E.02064
G1 X79.029 Y103.533 E.05115
G1 X78.95 Y103.913 E.01432
G1 X78.95 Y104.116 E.00752
G1 X78.05 Y103.216 E.04705
G1 X78.05 Y103.878 E.02445
G1 X78.95 Y104.778 E.04705
G1 X78.95 Y105.439 E.02445
G1 X78.05 Y104.539 E.04705
G1 X78.05 Y105.201 E.02445
G1 X78.95 Y106.101 E.04705
G1 X78.95 Y106.763 E.02445
G1 X78.05 Y105.862 E.04705
G1 X78.05 Y106.524 E.02445
G1 X78.95 Y107.424 E.04705
G1 X78.95 Y108.086 E.02445
G1 X78.05 Y107.185 E.04705
G1 X78.05 Y107.847 E.02445
G1 X78.95 Y108.747 E.04705
G1 X78.95 Y109.409 E.02445
G1 X78.05 Y108.509 E.04705
G1 X78.05 Y109.17 E.02445
G1 X78.95 Y110.07 E.04705
G1 X78.95 Y110.732 E.02445
G1 X78.05 Y109.832 E.04705
G1 X78.05 Y110.493 E.02445
G1 X79.156 Y111.599 E.0578
G1 E-.7 F2400
;WIPE_START
G1 F3000
G1 X78.449 Y110.892 E-.3
;WIPE_END
G1 Z.4 F9600
G1 X84.844 Y104.056 Z.4
G1 Z.2
G1 E1 F2400
G1 F3000
G1 X87.95 Y107.162 E.16231
G1 X87.95 Y107.824 E.02445
G1 X85.05 Y104.924 E.15156
G1 X85.05 Y105.585 E.02445
G1 X87.95 Y108.485 E.15156
G1 X87.95 Y109.147 E.02445
G1 X85.05 Y106.247 E.15156
G1 X85.05 Y106.908 E.02445
G1 X87.95 Y109.808 E.15156
G1 X87.95 Y110.47 E.02445
G1 X85.05 Y107.57 E.15156
G1 X85.05 Y108.231 E.02445
G1 X87.95 Y111.132 E.15156
G1 X87.95 Y111.793 E.02445
G1 X85.05 Y108.893 E.15156
G1 X85.05 Y109.554 E.02445
G1 X87.95 Y112.455 E.15156
G1 X87.95 Y113.116 E.02445
G1 X85.05 Y110.216 E.15156
G1 X85.05 Y110.878 E.02445
G1 X87.847 Y113.675 E.14618
G1 X87.186 Y113.675 E.02445
G1 X85.05 Y111.539 E.11161
G3 X84.964 Y112.115 I-1.172 J.12 E.02174
G1 X86.524 Y113.675 E.08151
G1 X85.862 Y113.675 E.02445
G1 X84.687 Y112.499 E.06145
G1 X84.555 Y112.629 E.00684
G1 X84.263 Y112.737 E.01149
G1 X85.201 Y113.675 E.049
G1 X84.539 Y113.675 E.02445
G1 X83.639 Y112.775 E.04705
G1 X82.977 Y112.775 E.02445
G1 X83.878 Y113.675 E.04705
G1 X83.216 Y113.675 E.02445
G1 X82.316 Y112.775 E.04705
G1 X81.654 Y112.775 E.02445
G1 X82.555 Y113.675 E.04705
G1 X81.893 Y113.675 E.02445
G1 X80.993 Y112.775 E.04705
G1 X80.331 Y112.775 E.02445
G1 X81.231 Y113.675 E.04705
G1 X80.57 Y113.675 E.02445
G1 X78.05 Y111.155 E.13169
G1 X78.05 Y111.816 E.02445
G1 X79.908 Y113.675 E.09712
G1 X79.247 Y113.675 E.02445
G1 X78.05 Y112.478 E.06254
G1 X78.05 Y113.14 E.02445
G1 X78.791 Y113.881 E.03872
G1 E-.7 F2400
;WIPE_START
G1 F3000
G1 X78.084 Y113.173 E-.3
;WIPE_END
G1 Z.4 F9600
G1 X80.088 Y112.75 Z.4
G1 Z.2
G1 E1 F2400
;TYPE:Gap infill
;WIDTH:0.117885
G1 F1800
G3 X79.922 Y112.669 I.703 J-1.632 E.0011
; stop printing object snsr5.STL id:8171063952611762432 copy 0
;TIME_ELAPSED:72.981850

M106 S255
;LAYER_CHANGE
;Z:0.4
;HEIGHT:0.2
;BEFORE_LAYER_CHANGE
;0.4
G92 E0

G1 E-.7 F2400
;WIPE_START
G1 F1800
G1 X80.088 Y112.75 E-.3
;WIPE_END
;_SET_FAN_SPEED_CHANGING_LAYER
M204 S1500
M205 X12 Y12
M104 S190 ; set nozzle temperature
; printing object snsr5.STL id:8171063952611762432 copy 0
G1 Z.4 F12000
G1 X132.052 Y101.548 Z.4
G1 E1 F2400
M205 X9 Y9
;TYPE:Inner wall
;WIDTH:0.449999
G1 F3000
G1 X142.398 Y101.548 E.33268
G1 X142.398 Y114.123 E.40435
G1 X131.602 Y114.123 E.34715
G1 X131.602 Y101.548 E.40435
G1 X132.012 Y101.548 E.01318
M205 X12 Y12
G1 X131.21 Y101.156 F12000
M205 X9 Y9
;TYPE:Outer wall
;WIDTH:0.419999
G1 F3000
G1 X142.79 Y101.156 E.34493
G1 X142.79 Y114.515 E.39791
G1 X131.21 Y114.515 E.34493
G1 X131.21 Y101.196 E.39672
M205 X12 Y12
G1 E-.7 F2400
;WIPE_START
G1 F3000
G1 X132.21 Y101.193 E-.3
;WIPE_END
G1 Z.6 F12000
G1 X140.475 Y103.577 Z.6
G1 Z.4
G1 E1 F2400
M205 X9 Y9
;TYPE:Inner wall
;WIDTH:0.449999
G1 F3000
G1 X140.546 Y103.698 E.0045
G3 X140.602 Y103.925 I-.583 J.265 E.00755
G1 X140.602 Y111.746 E.25152
G1 X140.554 Y111.977 E.00757
G3 X140.021 Y112.327 I-.571 J-.289 E.02146
G1 X135.979 Y112.327 E.13001
G1 X135.68 Y112.244 E.00997
G1 X135.486 Y112.054 E.00872
G1 X135.398 Y111.746 E.0103
G1 X135.398 Y103.925 E.25152
G1 X135.486 Y103.617 E.0103
G1 X135.68 Y103.427 E.00872
G1 X135.979 Y103.344 E.00997
G1 X140.021 Y103.344 E.13001
G1 X140.252 Y103.392 E.00757
M73 P6 R20
M73 P6 R20
G3 X140.426 Y103.52 I-.289 J.571 E.00698
G1 X140.449 Y103.547 E.00114
M205 X12 Y12
G1 X140.021 Y103.736 F12000
M205 X9 Y9
;TYPE:Outer wall
;WIDTH:0.419999
G1 F3000
G1 X140.155 Y103.791 E.0043
G1 X140.21 Y103.925 E.0043
G1 X140.21 Y111.746 E.23298
G1 X140.155 Y111.879 E.0043
G1 X140.021 Y111.935 E.0043
G1 X135.979 Y111.935 E.12042
G1 X135.819 Y111.846 E.00544
G1 X135.79 Y111.746 E.0031
G1 X135.79 Y103.925 E.23298
G1 X135.819 Y103.825 E.0031
G1 X135.95 Y103.736 E.00472
G1 X139.981 Y103.736 E.12008
G1 E-.7 F2400
;WIPE_START
G1 F3000
G1 X140.155 Y103.791 E-.05457
G1 X140.21 Y103.925 E-.04329
G1 X140.21 Y104.598 E-.20214
;WIPE_END
M205 X12 Y12
G1 Z.6 F12000
G1 X135.235 Y110.344
G1 Z.6
G1 Z.4
G1 E1 F2400
;TYPE:Internal solid infill
;WIDTH:0.45407
G1 F5837.286
G1 X131.967 Y113.612 E.15011
G1 X131.967 Y113.031 E.01888
G1 X135.052 Y109.946 E.14169
G1 X135.052 Y109.364 E.01888
G1 X131.967 Y112.449 E.14169
G1 X131.967 Y111.868 E.01888
G1 X135.052 Y108.783 E.14169
G1 X135.052 Y108.202 E.01888
G1 X131.967 Y111.287 E.14169
G1 X131.967 Y110.705 E.01888
M73 P6 R19
M73 P6 R19
G1 X135.052 Y107.62 E.14169
