; HEADER_BLOCK_START
; generated by Creality_Print V6.0.4.1795 on 2025-06-06 at 14:51:33
; total layer number: 120
; filament_density: 1.24
; filament_diameter: 1.75
; max_z_height: 24.00
; HEADER_BLOCK_END

; MINX = 56.00
; MINY = 63.50
; MINZ = 0.00
; MAXX = 164.00
; MAXY = 135.50
; MAXZ = 24.00

; THUMBNAIL_BLOCK_START

;
; THUMBNAIL_BLOCK_END

; external perimeters extrusion width = 0.42mm
; perimeters extrusion width = 0.45mm
; infill extrusion width = 0.45mm
; solid infill extrusion width = 0.45mm
; top infill extrusion width = 0.42mm
; first layer extrusion width = 0.50mm

; EXECUTABLE_BLOCK_START
M73 P0 R128
M201 X5000 Y5000 Z1000 E5000
M203 X500 Y500 Z10 E50
M204 P5000 R1000 T5000
M205 X12.00 Y12.00 Z0.40 E5.00 ; sets the jerk limits, mm/sec
;TYPE:Custom
G90 ; use absolute coordinates
M83 ; extruder relative mode
M104 S150 ; set temporary nozzle temp to prevent oozing during homing
M140 S60 ; set final bed temp
G4 S30 ; allow partial nozzle warmup
G28 ; home all axis and restore leveling
G1 Z50 F240
G1 X2.0 Y10 F3000
M104 S200 ; set final nozzle temp
M190 S60 ; wait for bed temp to stabilize
M109 S200 ; wait for nozzle temp to stabilize
G1 Z0.28 F240
G92 E0
G1 X2.0 Y140 E10 F1500 ; prime the nozzle
G1 X2.3 Y140 F5000
G92 E0
G1 X2.3 Y10 E10 F1200 ; prime the nozzle
G92 E0
G90
G21
M83 ; use relative distances for extrusion
; filament start gcode
G1 E-1 F2400
M106 S0
;LAYER_CHANGE
;Z:0.2
;HEIGHT:0.2
;BEFORE_LAYER_CHANGE
;0.2
G92 E0

;_SET_FAN_SPEED_CHANGING_LAYER
M204 S500
M205 X9 Y9
; printing object ultra esp.STL id:8171063952611762432 copy 0
G1 Z.2 F9600
G1 X162.793 Y134.793
G1 E1 F2400
;TYPE:Inner wall
;WIDTH:0.499999
G1 F1800
G1 X56.707 Y134.793 E3.83033
G1 X56.707 Y64.207 E2.54857
G1 X163.293 Y64.207 E3.84838
M73 P0 R127
M73 P0 R127
G1 X163.293 Y134.793 E2.54857
G1 X162.833 Y134.793 E.01661
G1 E-.7 F2400
;WIPE_START
G1 F1800
G1 X161.833 Y134.793 E-.3
;WIPE_END
G1 Z.4 F9600
G1 X163.75 Y135.25 Z.4
G1 Z.2
G1 E1 F2400
;TYPE:Outer wall
G1 F1800
G1 X56.25 Y135.25 E3.88139
G1 X56.25 Y63.75 E2.58158
G1 X163.75 Y63.75 E3.88139
G1 X163.75 Y135.21 E2.58013
G1 E-.7 F2400
;WIPE_START
G1 F1800
G1 X162.75 Y135.21 E-.3
;WIPE_END
G1 Z.4 F9600
G1 X160.614 Y133.207 Z.4
G1 Z.2
G1 E1 F2400
;TYPE:Inner wall
G1 F1800
G1 X153.979 Y133.207 E.23959
G1 X153.656 Y133.126 E.01201
G1 X153.43 Y132.933 E.01074
G3 X153.293 Y132.521 I.548 J-.411 E.01593
G1 X153.293 Y66.479 E2.38454
G3 X153.656 Y65.874 I.762 J.046 E.02648
G1 X153.89 Y65.793 E.00894
G1 X161.021 Y65.793 E.25749
G1 X161.294 Y65.849 E.01004
G1 X161.506 Y65.994 E.00928
G1 X161.651 Y66.206 E.00928
G1 X161.707 Y66.479 E.01004
G1 X161.707 Y132.521 E2.38454
G1 X161.651 Y132.794 E.01004
G1 X161.506 Y133.006 E.00928
G1 X161.294 Y133.151 E.00928
G1 X161.021 Y133.207 E.01004
G1 X160.654 Y133.207 E.01326
G1 X161.021 Y132.75 F9600
;TYPE:Outer wall
G1 F1800
G1 X153.979 Y132.75 E.25429
G1 X153.796 Y132.659 E.00738
G1 X153.75 Y132.521 E.00522
G1 X153.75 Y66.479 E2.38454
G1 X153.796 Y66.341 E.00522
G1 X153.949 Y66.25 E.00645
G1 X161.021 Y66.25 E.25536
G1 X161.183 Y66.317 E.00632
G1 X161.25 Y66.479 E.00632
G1 X161.25 Y132.521 E2.38454
G1 X161.183 Y132.683 E.00632
G1 X161.058 Y132.735 E.00487
G1 E-.7 F2400
;WIPE_START
G1 F1800
G1 X160.058 Y132.737 E-.3
;WIPE_END
G1 Z.4 F9600
G1 X58.293 Y132.114 Z.4
G1 Z.2
G1 E1 F2400
;TYPE:Inner wall
G1 F1800
G1 X58.293 Y66.479 E2.36984
G1 X58.349 Y66.206 E.01004
G1 X58.494 Y65.994 E.00928
G1 X58.706 Y65.849 E.00928
G1 X58.979 Y65.793 E.01004
G1 X66.021 Y65.793 E.25429
G1 X66.344 Y65.874 E.01201
G1 X66.57 Y66.067 E.01074
G3 X66.707 Y66.479 I-.548 J.411 E.01593
G1 X66.707 Y132.521 E2.38454
M73 P1 R127
M73 P1 R127
G3 X66.344 Y133.126 I-.762 J-.046 E.02648
G1 X66.021 Y133.207 E.01201
G1 X58.979 Y133.207 E.25429
G1 X58.706 Y133.151 E.01004
G1 X58.494 Y133.006 E.00928
G1 X58.349 Y132.794 E.00928
G1 X58.293 Y132.521 E.01004
G1 X58.293 Y132.154 E.01326
G1 X58.75 Y132.521 F9600
;TYPE:Outer wall
G1 F1800
G1 X58.75 Y66.479 E2.38454
G1 X58.817 Y66.317 E.00632
G1 X58.979 Y66.25 E.00632
G1 X66.021 Y66.25 E.25429
G1 X66.204 Y66.341 E.00738
G1 X66.25 Y66.479 E.00522
G1 X66.25 Y132.521 E2.38454
G1 X66.204 Y132.659 E.00522
G1 X66.055 Y132.75 E.00631
G1 X58.979 Y132.75 E.25551
G1 X58.817 Y132.683 E.00632
G1 X58.765 Y132.558 E.00487
G1 E-.7 F2400
;WIPE_START
G1 F1800
G1 X58.765 Y131.558 E-.3
;WIPE_END
G1 Z.4 F9600
G1 X162.23 Y64.344
G1 Z.4
G1 Z.2
G1 E1 F2400
;TYPE:Bottom surface
;WIDTH:0.500634
G1 F3000
G1 X162.95 Y65.064 E.0368
G1 X162.95 Y65.711 E.0234
G1 X161.789 Y64.55 E.05938
G1 X161.142 Y64.55 E.0234
G1 X162.95 Y66.358 E.09248
G1 X162.95 Y67.006 E.0234
G1 X160.289 Y64.344 E.13609
G1 E-.7 F2400
;WIPE_START
G1 F3000
G1 X160.996 Y65.051 E-.3
;WIPE_END
G1 Z.4 F9600
G1 X160.953 Y65.656 Z.4
G1 Z.2
G1 E1 F2400
G1 F3000
G1 X159.847 Y64.55 E.05655
G1 X159.2 Y64.55 E.0234
G1 X160.1 Y65.45 E.04603
G1 X159.453 Y65.45 E.0234
G1 X158.552 Y64.55 E.04603
G1 X157.905 Y64.55 E.0234
G1 X158.805 Y65.45 E.04603
G1 X158.158 Y65.45 E.0234
G1 X157.258 Y64.55 E.04603
G1 X156.61 Y64.55 E.0234
G1 X157.511 Y65.45 E.04603
G1 X156.863 Y65.45 E.0234
G1 X155.963 Y64.55 E.04603
G1 X155.316 Y64.55 E.0234
G1 X156.216 Y65.45 E.04603
G1 X155.569 Y65.45 E.0234
G1 X154.668 Y64.55 E.04603
G1 X154.021 Y64.55 E.0234
G1 X154.921 Y65.45 E.04603
G1 X154.274 Y65.45 E.0234
G1 X153.374 Y64.55 E.04603
G1 X152.727 Y64.55 E.0234
G1 X153.682 Y65.505 E.04884
G1 X153.491 Y65.571 E.00731
G1 X153.28 Y65.751 E.01
G1 X152.079 Y64.55 E.06142
G1 X151.432 Y64.55 E.0234
G1 X153.017 Y66.135 E.08105
G1 X152.99 Y66.188 E.00215
G2 X152.95 Y66.715 I1.825 J.405 E.01918
G1 X150.785 Y64.55 E.11072
G1 X150.137 Y64.55 E.0234
G1 X152.95 Y67.363 E.14382
G1 X152.95 Y68.01 E.0234
G1 X149.49 Y64.55 E.17692
G1 X148.843 Y64.55 E.0234
G1 X152.95 Y68.657 E.21002
G1 X152.95 Y69.305 E.0234
G1 X148.195 Y64.55 E.24312
G1 X147.548 Y64.55 E.0234
G1 X152.95 Y69.952 E.27622
G1 X152.95 Y70.599 E.0234
G1 X146.901 Y64.55 E.30931
G1 X146.254 Y64.55 E.0234
G1 X152.95 Y71.246 E.34241
G1 X152.95 Y71.894 E.0234
G1 X145.606 Y64.55 E.37551
G1 X144.959 Y64.55 E.0234
G1 X152.95 Y72.541 E.40861
G1 X152.95 Y73.188 E.0234
G1 X144.312 Y64.55 E.44171
G1 X143.664 Y64.55 E.0234
G1 X152.95 Y73.836 E.47481
G1 X152.95 Y74.483 E.0234
G1 X143.017 Y64.55 E.5079
G1 X142.37 Y64.55 E.0234
G1 X152.95 Y75.13 E.541
G1 X152.95 Y75.778 E.0234
G1 X141.722 Y64.55 E.5741
G1 X141.075 Y64.55 E.0234
G1 X152.95 Y76.425 E.6072
G1 X152.95 Y77.072 E.0234
G1 X140.428 Y64.55 E.6403
G1 X139.78 Y64.55 E.0234
G1 X152.95 Y77.72 E.6734
G1 X152.95 Y78.367 E.0234
G1 X139.133 Y64.55 E.70649
G1 X138.486 Y64.55 E.0234
G1 X152.95 Y79.014 E.73959
G1 X152.95 Y79.661 E.0234
G1 X137.839 Y64.55 E.77269
G1 X137.191 Y64.55 E.0234
G1 X152.95 Y80.309 E.80579
G1 X152.95 Y80.956 E.0234
G1 X136.544 Y64.55 E.83889
G1 X135.897 Y64.55 E.0234
G1 X152.95 Y81.603 E.87199
G1 X152.95 Y82.251 E.0234
G1 X135.249 Y64.55 E.90508
G1 X134.602 Y64.55 E.0234
G1 X152.95 Y82.898 E.93818
G1 X152.95 Y83.545 E.0234
G1 X133.955 Y64.55 E.97128
G1 X133.307 Y64.55 E.0234
G1 X152.95 Y84.193 E1.00438
G1 X152.95 Y84.84 E.0234
G1 X132.66 Y64.55 E1.03748
G1 X132.013 Y64.55 E.0234
G1 X152.95 Y85.487 E1.07058
G1 X152.95 Y86.134 E.0234
G1 X131.366 Y64.55 E1.10367
G1 X130.718 Y64.55 E.0234
G1 X152.95 Y86.782 E1.13677
G1 X152.95 Y87.429 E.0234
G1 X130.071 Y64.55 E1.16987
G1 X129.424 Y64.55 E.0234
G1 X152.95 Y88.076 E1.20297
G1 X152.95 Y88.724 E.0234
M73 P1 R126
M73 P1 R126
G1 X128.776 Y64.55 E1.23607
G1 X128.129 Y64.55 E.0234
G1 X152.95 Y89.371 E1.26917
G1 X152.95 Y90.018 E.0234
G1 X127.482 Y64.55 E1.30226
G1 X126.834 Y64.55 E.0234
G1 X152.95 Y90.666 E1.33536
G1 X152.95 Y91.313 E.0234
G1 X126.187 Y64.55 E1.36846
G1 X125.54 Y64.55 E.0234
G1 X152.95 Y91.96 E1.40156
G1 X152.95 Y92.608 E.0234
G1 X124.892 Y64.55 E1.43466
G1 X124.245 Y64.55 E.0234
G1 X152.95 Y93.255 E1.46776
G1 X152.95 Y93.902 E.0234
G1 X123.598 Y64.55 E1.50085
G1 X122.951 Y64.55 E.0234
G1 X152.95 Y94.549 E1.53395
G1 X152.95 Y95.197 E.0234
G1 X122.303 Y64.55 E1.56705
G1 X121.656 Y64.55 E.0234
G1 X152.95 Y95.844 E1.60015
G1 X152.95 Y96.491 E.0234
G1 X121.009 Y64.55 E1.63325
G1 X120.361 Y64.55 E.0234
G1 X152.95 Y97.139 E1.66635
G1 X152.95 Y97.786 E.0234
G1 X119.714 Y64.55 E1.69944
G1 X119.067 Y64.55 E.0234
G1 X152.95 Y98.433 E1.73254
G1 X152.95 Y99.081 E.0234
G1 X118.419 Y64.55 E1.76564
G1 X117.772 Y64.55 E.0234
G1 X152.95 Y99.728 E1.79874
G1 X152.95 Y100.375 E.0234
G1 X117.125 Y64.55 E1.83184
G1 X116.477 Y64.55 E.0234
G1 X152.95 Y101.023 E1.86494
G1 X152.95 Y101.67 E.0234
G1 X115.83 Y64.55 E1.89803
G1 X115.183 Y64.55 E.0234
G1 X152.95 Y102.317 E1.93113
G1 X152.95 Y102.964 E.0234
G1 X114.536 Y64.55 E1.96423
G1 X113.888 Y64.55 E.0234
G1 X152.95 Y103.612 E1.99733
G1 X152.95 Y104.259 E.0234
G1 X113.241 Y64.55 E2.03043
G1 X112.594 Y64.55 E.0234
G1 X152.95 Y104.906 E2.06353
G1 X152.95 Y105.554 E.0234
G1 X111.946 Y64.55 E2.09662
G1 X111.299 Y64.55 E.0234
G1 X152.95 Y106.201 E2.12972
G1 X152.95 Y106.848 E.0234
G1 X110.652 Y64.55 E2.16282
G1 X110.004 Y64.55 E.0234
G1 X152.95 Y107.496 E2.19592
G1 X152.95 Y108.143 E.0234
G1 X109.357 Y64.55 E2.22902
G1 X108.71 Y64.55 E.0234
G1 X152.95 Y108.79 E2.26212
G1 X152.95 Y109.437 E.0234
G1 X108.063 Y64.55 E2.29521
G1 X107.415 Y64.55 E.0234
G1 X152.95 Y110.085 E2.32831
G1 X152.95 Y110.732 E.0234
G1 X106.768 Y64.55 E2.36141
G1 X106.121 Y64.55 E.0234
G1 X152.95 Y111.379 E2.39451
G1 X152.95 Y112.027 E.0234
G1 X105.473 Y64.55 E2.42761
G1 X104.826 Y64.55 E.0234
G1 X152.95 Y112.674 E2.46071
G1 X152.95 Y113.321 E.0234
G1 X104.179 Y64.55 E2.4938
G1 X103.531 Y64.55 E.0234
G1 X152.95 Y113.969 E2.5269
G1 X152.95 Y114.616 E.0234
G1 X102.884 Y64.55 E2.56
G1 X102.237 Y64.55 E.0234
G1 X152.95 Y115.263 E2.5931
G1 X152.95 Y115.911 E.0234
G1 X101.589 Y64.55 E2.6262
G1 X100.942 Y64.55 E.0234
M73 P2 R126
M73 P2 R126
G1 X152.95 Y116.558 E2.6593
G1 X152.95 Y117.205 E.0234
G1 X100.295 Y64.55 E2.69239
G1 X99.648 Y64.55 E.0234
G1 X152.95 Y117.852 E2.72549
G1 X152.95 Y118.5 E.0234
G1 X99 Y64.55 E2.75859
G1 X98.353 Y64.55 E.0234
G1 X152.95 Y119.147 E2.79169
G1 X152.95 Y119.794 E.0234
G1 X97.706 Y64.55 E2.82479
G1 X97.058 Y64.55 E.0234
M73 P2 R125
M73 P2 R125
G1 X152.95 Y120.442 E2.85789
G1 X152.95 Y121.089 E.0234
G1 X96.411 Y64.55 E2.89098
G1 X95.764 Y64.55 E.0234
G1 X152.95 Y121.736 E2.92408
G1 X152.95 Y122.384 E.0234
G1 X95.116 Y64.55 E2.95718
G1 X94.469 Y64.55 E.0234
G1 X152.95 Y123.031 E2.99028
G1 X152.95 Y123.678 E.0234
G1 X93.822 Y64.55 E3.02338
G1 X93.174 Y64.55 E.0234
G1 X152.95 Y124.326 E3.05648
G1 X152.95 Y124.973 E.0234
G1 X92.527 Y64.55 E3.08957
G1 X91.88 Y64.55 E.0234
G1 X152.95 Y125.62 E3.12267
G1 X152.95 Y126.267 E.0234
G1 X91.233 Y64.55 E3.15577
G1 X90.585 Y64.55 E.0234
G1 X152.95 Y126.915 E3.18887
G1 X152.95 Y127.562 E.0234
G1 X89.938 Y64.55 E3.22197
G1 X89.291 Y64.55 E.0234
G1 X152.95 Y128.209 E3.25506
G1 X152.95 Y128.857 E.0234
G1 X88.643 Y64.55 E3.28816
G1 X87.996 Y64.55 E.0234
G1 X152.95 Y129.504 E3.32126
G1 X152.95 Y130.151 E.0234
G1 X87.349 Y64.55 E3.35436
G1 X86.701 Y64.55 E.0234
G1 X152.95 Y130.799 E3.38746
G1 X152.95 Y131.446 E.0234
G1 X86.054 Y64.55 E3.42056
G1 X85.407 Y64.55 E.0234
G1 X153.156 Y132.299 E3.46417
G1 E-.7 F2400
;WIPE_START
G1 F3000
G1 X152.449 Y131.592 E-.3
;WIPE_END
G1 Z.4 F9600
G1 X163.156 Y67.859 Z.4
G1 Z.2
G1 E1 F2400
G1 F3000
G1 X162.05 Y66.753 E.05655
G1 X162.05 Y67.4 E.0234
G1 X162.95 Y68.3 E.04603
G1 X162.95 Y68.948 E.0234
G1 X162.05 Y68.047 E.04603
G1 X162.05 Y68.695 E.0234
G1 X162.95 Y69.595 E.04603
G1 X162.95 Y70.242 E.0234
G1 X162.05 Y69.342 E.04603
G1 X162.05 Y69.989 E.0234
G1 X162.95 Y70.89 E.04603
G1 X162.95 Y71.537 E.0234
G1 X162.05 Y70.637 E.04603
G1 X162.05 Y71.284 E.0234
G1 X162.95 Y72.184 E.04603
G1 X162.95 Y72.832 E.0234
G1 X162.05 Y71.931 E.04603
G1 X162.05 Y72.579 E.0234
G1 X162.95 Y73.479 E.04603
G1 X162.95 Y74.126 E.0234
G1 X162.05 Y73.226 E.04603
G1 X162.05 Y73.873 E.0234
G1 X162.95 Y74.773 E.04603
G1 X162.95 Y75.421 E.0234
G1 X162.05 Y74.52 E.04603
G1 X162.05 Y75.168 E.0234
G1 X162.95 Y76.068 E.04603
G1 X162.95 Y76.715 E.0234
G1 X162.05 Y75.815 E.04603
G1 X162.05 Y76.462 E.0234
G1 X162.95 Y77.363 E.04603
G1 X162.95 Y78.01 E.0234
G1 X162.05 Y77.11 E.04603
G1 X162.05 Y77.757 E.0234
G1 X162.95 Y78.657 E.04603
G1 X162.95 Y79.305 E.0234
G1 X162.05 Y78.404 E.04603
G1 X162.05 Y79.052 E.0234
G1 X162.95 Y79.952 E.04603
G1 X162.95 Y80.599 E.0234
G1 X162.05 Y79.699 E.04603
G1 X162.05 Y80.346 E.0234
G1 X162.95 Y81.246 E.04603
G1 X162.95 Y81.894 E.0234
G1 X162.05 Y80.994 E.04603
G1 X162.05 Y81.641 E.0234
G1 X162.95 Y82.541 E.04603
G1 X162.95 Y83.188 E.0234
G1 X162.05 Y82.288 E.04603
G1 X162.05 Y82.935 E.0234
G1 X162.95 Y83.836 E.04603
G1 X162.95 Y84.483 E.0234
G1 X162.05 Y83.583 E.04603
G1 X162.05 Y84.23 E.0234
G1 X162.95 Y85.13 E.04603
G1 X162.95 Y85.778 E.0234
G1 X162.05 Y84.877 E.04603
G1 X162.05 Y85.525 E.0234
G1 X162.95 Y86.425 E.04603
G1 X162.95 Y87.072 E.0234
G1 X162.05 Y86.172 E.04603
G1 X162.05 Y86.819 E.0234
G1 X162.95 Y87.72 E.04603
G1 X162.95 Y88.367 E.0234
G1 X162.05 Y87.467 E.04603
G1 X162.05 Y88.114 E.0234
G1 X162.95 Y89.014 E.04603
G1 X162.95 Y89.661 E.0234
G1 X162.05 Y88.761 E.04603
G1 X162.05 Y89.409 E.0234
G1 X162.95 Y90.309 E.04603
G1 X162.95 Y90.956 E.0234
G1 X162.05 Y90.056 E.04603
G1 X162.05 Y90.703 E.0234
G1 X162.95 Y91.603 E.04603
G1 X162.95 Y92.251 E.0234
G1 X162.05 Y91.35 E.04603
G1 X162.05 Y91.998 E.0234
G1 X162.95 Y92.898 E.04603
G1 X162.95 Y93.545 E.0234
G1 X162.05 Y92.645 E.04603
G1 X162.05 Y93.292 E.0234
G1 X162.95 Y94.193 E.04603
G1 X162.95 Y94.84 E.0234
G1 X162.05 Y93.94 E.04603
G1 X162.05 Y94.587 E.0234
G1 X162.95 Y95.487 E.04603
G1 X162.95 Y96.134 E.0234
G1 X162.05 Y95.234 E.04603
G1 X162.05 Y95.882 E.0234
G1 X162.95 Y96.782 E.04603
G1 X162.95 Y97.429 E.0234
G1 X162.05 Y96.529 E.04603
G1 X162.05 Y97.176 E.0234
G1 X162.95 Y98.076 E.04603
G1 X162.95 Y98.724 E.0234
G1 X162.05 Y97.823 E.04603
G1 X162.05 Y98.471 E.0234
G1 X162.95 Y99.371 E.04603
G1 X162.95 Y100.018 E.0234
G1 X162.05 Y99.118 E.04603
G1 X162.05 Y99.765 E.0234
G1 X162.95 Y100.666 E.04603
G1 X162.95 Y101.313 E.0234
G1 X162.05 Y100.413 E.04603
G1 X162.05 Y101.06 E.0234
G1 X162.95 Y101.96 E.04603
G1 X162.95 Y102.608 E.0234
G1 X162.05 Y101.707 E.04603
G1 X162.05 Y102.355 E.0234
G1 X162.95 Y103.255 E.04603
G1 X162.95 Y103.902 E.0234
G1 X162.05 Y103.002 E.04603
G1 X162.05 Y103.649 E.0234
G1 X162.95 Y104.549 E.04603
G1 X162.95 Y105.197 E.0234
G1 X162.05 Y104.297 E.04603
G1 X162.05 Y104.944 E.0234
G1 X162.95 Y105.844 E.04603
G1 X162.95 Y106.491 E.0234
G1 X162.05 Y105.591 E.04603
G1 X162.05 Y106.238 E.0234
G1 X162.95 Y107.139 E.04603
G1 X162.95 Y107.786 E.0234
G1 X162.05 Y106.886 E.04603
G1 X162.05 Y107.533 E.0234
G1 X162.95 Y108.433 E.04603
G1 X162.95 Y109.081 E.0234
G1 X162.05 Y108.18 E.04603
G1 X162.05 Y108.828 E.0234
G1 X162.95 Y109.728 E.04603
G1 X162.95 Y110.375 E.0234
G1 X162.05 Y109.475 E.04603
G1 X162.05 Y110.122 E.0234
G1 X162.95 Y111.023 E.04603
G1 X162.95 Y111.67 E.0234
G1 X162.05 Y110.77 E.04603
G1 X162.05 Y111.417 E.0234
G1 X162.95 Y112.317 E.04603
G1 X162.95 Y112.964 E.0234
G1 X162.05 Y112.064 E.04603
G1 X162.05 Y112.712 E.0234
G1 X162.95 Y113.612 E.04603
G1 X162.95 Y114.259 E.0234
G1 X162.05 Y113.359 E.04603
G1 X162.05 Y114.006 E.0234
G1 X162.95 Y114.906 E.04603
G1 X162.95 Y115.554 E.0234
G1 X162.05 Y114.653 E.04603
G1 X162.05 Y115.301 E.0234
G1 X162.95 Y116.201 E.04603
G1 X162.95 Y116.848 E.0234
G1 X162.05 Y115.948 E.04603
G1 X162.05 Y116.595 E.0234
G1 X162.95 Y117.496 E.04603
G1 X162.95 Y118.143 E.0234
G1 X162.05 Y117.243 E.04603
G1 X162.05 Y117.89 E.0234
G1 X162.95 Y118.79 E.04603
G1 X162.95 Y119.437 E.0234
G1 X162.05 Y118.537 E.04603
G1 X162.05 Y119.185 E.0234
G1 X162.95 Y120.085 E.04603
G1 X162.95 Y120.732 E.0234
G1 X162.05 Y119.832 E.04603
G1 X162.05 Y120.479 E.0234
G1 X162.95 Y121.379 E.04603
G1 X162.95 Y122.027 E.0234
G1 X162.05 Y121.126 E.04603
G1 X162.05 Y121.774 E.0234
G1 X162.95 Y122.674 E.04603
G1 X162.95 Y123.321 E.0234
G1 X162.05 Y122.421 E.04603
G1 X162.05 Y123.068 E.0234
G1 X162.95 Y123.969 E.04603
G1 X162.95 Y124.616 E.0234
G1 X162.05 Y123.716 E.04603
G1 X162.05 Y124.363 E.0234
